assets/efishery/ikan.svg

<svg width="24" height="25" viewBox="0 0 24 25" fill="none" xmlns="http://www.w3.org/2000/svg">
<path d="M16.7676 11.5742C17.0437 11.5742 17.2676 11.3504 17.2676 11.0742C17.2676 10.7981 17.0437 10.5742 16.7676 10.5742C16.4914 10.5742 16.2676 10.7981 16.2676 11.0742C16.2676 11.3504 16.4914 11.5742 16.7676 11.5742Z" fill="#1D1D1D"/>
<path fill-rule="evenodd" clip-rule="evenodd" d="M13.8244 6.06681C13.268 5.34138 12.3029 4.38589 11.1259 3.80197C9.89629 3.19192 8.34442 2.95457 6.85159 3.94979C6.59919 4.11806 6.473 4.4218 6.53187 4.71938C6.59074 5.01696 6.82307 5.24977 7.12052 5.30927C7.3923 5.36362 7.77314 5.54569 8.08002 5.82026C8.27499 5.99471 8.39705 6.16596 8.46126 6.31936C7.51911 6.60766 6.56608 7.03576 5.6894 7.64507C3.45854 9.19556 1.80606 11.8646 2.01837 16.1109C2.01913 16.126 2.02035 16.1412 2.02203 16.1562C2.07816 16.6614 2.30064 17.2548 2.59075 17.8268C2.88807 18.4129 3.28628 19.0347 3.74539 19.6058C4.20275 20.1747 4.73735 20.7143 5.3141 21.1177C5.88304 21.5156 6.55407 21.8234 7.26742 21.8234C8.78405 21.8234 9.58368 20.5091 9.86356 19.5295C10.0114 19.0119 10.0629 18.4524 9.97292 17.98C9.92827 17.7455 9.83797 17.476 9.6531 17.2495C9.45006 17.0008 9.14397 16.8234 8.76742 16.8234C8.55672 16.8234 8.32858 16.8657 8.13647 16.9068C8.00389 16.9351 7.85233 16.9713 7.70116 17.0073C7.62813 17.0248 7.55516 17.0422 7.4845 17.0587C7.02306 17.1663 6.54302 17.263 6.07538 17.2736C5.61144 17.2842 5.20733 17.2083 4.87286 17.0115C4.59582 16.8484 4.31331 16.5712 4.08096 16.0754C4.26292 15.7223 4.62902 15.2255 5.17727 14.781C5.846 14.2388 6.72599 13.8234 7.76742 13.8234C8.27036 13.8234 9.03167 14.0022 10.0426 14.2887C10.3043 14.3629 10.58 14.4434 10.866 14.527C11.6363 14.7519 12.4815 14.9987 13.3296 15.2026C14.4975 15.4834 15.7344 15.6999 16.907 15.6796C18.0821 15.6592 19.249 15.3997 20.2174 14.6734C20.4365 14.5091 20.5486 14.2385 20.5099 13.9674C20.3278 12.6927 19.7103 10.7912 18.4362 9.14021C17.387 7.78075 15.8837 6.58331 13.8244 6.06681ZM9.83979 5.72648C9.67889 5.35069 9.42694 5.03029 9.16065 4.77666C9.59492 4.79827 10.0301 4.93277 10.4593 5.14569C10.7263 5.27814 10.983 5.43804 11.2242 5.6129C10.7391 5.63165 10.2516 5.67515 9.83979 5.72648ZM4.23257 13.6159C3.98415 13.8173 3.75736 14.0329 3.55515 14.2537C3.82632 11.5721 5.0637 9.90665 6.54547 8.87679C8.37799 7.60315 10.6696 7.24651 12.22 7.322C12.7623 7.3644 13.2651 7.4588 13.731 7.59611C12.568 9.07364 11.8525 11.1845 12.4824 13.4309C12.0881 13.3211 11.7002 13.2078 11.3201 13.0968C11.0258 13.0108 10.7359 12.9262 10.4517 12.8456C9.47818 12.5697 8.51448 12.3234 7.76742 12.3234C6.30885 12.3234 5.10551 12.9081 4.23257 13.6159ZM13.6406 13.7346C12.7539 11.5077 13.4915 9.37003 14.7166 7.97302C15.7783 8.47945 16.6075 9.22579 17.2487 10.0566C18.1917 11.2786 18.7175 12.674 18.941 13.7138C18.3713 14.0212 17.6801 14.1659 16.881 14.1798C15.8942 14.1969 14.7999 14.0134 13.6803 13.7442L13.6406 13.7346ZM4.91446 18.666L4.88737 18.6321C5.30231 18.7483 5.71948 18.7821 6.10946 18.7732C6.74182 18.7589 7.34928 18.6305 7.82534 18.5194C7.91416 18.4987 7.99565 18.4792 8.07182 18.4611L8.07398 18.4605C8.21265 18.4274 8.33421 18.3984 8.44993 18.3737C8.47214 18.3689 8.49303 18.3646 8.51267 18.3606C8.52841 18.5484 8.50676 18.8182 8.42128 19.1174C8.20116 19.8878 7.75079 20.3234 7.26742 20.3234C6.98077 20.3234 6.61013 20.1937 6.17387 19.8885C5.74541 19.5888 5.31127 19.1596 4.91446 18.666Z" fill="#1D1D1D"/>
</svg>

<svg viewBox="0 0 24 25" xmlns="http://www.w3.org/2000/svg">
  <path d="M16.768 11.574a.5.5 0 1 0 0-1 .5.5 0 0 0 0 1z"/>
  <path fill-rule="evenodd" clip-rule="evenodd" d="M13.824 6.067c-.556-.726-1.521-1.681-2.698-2.265-1.23-.61-2.782-.847-4.274.148a.75.75 0 0 0 .269 1.36c.271.054.652.236.959.51.195.175.317.346.381.5A9.957 9.957 0 0 0 5.69 7.644c-2.23 1.55-3.883 4.22-3.67 8.466l.003.045c.056.505.279 1.099.569 1.67a10.44 10.44 0 0 0 1.154 1.78c.458.569.992 1.108 1.57 1.512.568.398 1.24.705 1.952.705 1.517 0 2.317-1.314 2.597-2.294.147-.517.199-1.077.109-1.549a1.631 1.631 0 0 0-.32-.73 1.13 1.13 0 0 0-.886-.427c-.21 0-.438.043-.63.084-.133.028-.285.064-.436.1l-.216.052c-.462.107-.942.204-1.41.215-.464.01-.868-.066-1.202-.262-.277-.164-.56-.44-.792-.937.182-.353.548-.85 1.096-1.294.669-.542 1.549-.958 2.59-.958.503 0 1.265.18 2.276.466.261.074.537.154.823.238.77.225 1.616.472 2.464.676 1.168.28 2.404.497 3.577.477 1.175-.02 2.342-.28 3.31-1.007a.75.75 0 0 0 .293-.706c-.182-1.274-.8-3.176-2.074-4.827-1.049-1.36-2.552-2.557-4.612-3.073zm-3.984-.34a2.926 2.926 0 0 0-.68-.95c.435.021.87.156 1.3.369.266.132.523.292.764.467-.485.019-.972.062-1.384.113zm-5.607 7.889a6.307 6.307 0 0 0-.678.638c.271-2.682 1.509-4.347 2.99-5.377 1.833-1.274 4.125-1.63 5.675-1.555a7.36 7.36 0 0 1 1.511.274c-1.163 1.478-1.879 3.588-1.249 5.835-.394-.11-.782-.223-1.162-.334-.294-.086-.584-.17-.868-.251-.974-.276-1.938-.523-2.685-.523-1.458 0-2.661.585-3.534 1.293zm9.408.119c-.887-2.227-.15-4.365 1.076-5.762 1.061.506 1.89 1.253 2.532 2.084a9.429 9.429 0 0 1 1.692 3.657c-.57.307-1.26.452-2.06.466-.987.017-2.081-.167-3.2-.436l-.04-.01zm-8.727 4.931-.027-.034c.415.116.832.15 1.222.141.633-.014 1.24-.142 1.716-.254.09-.02.17-.04.247-.058h.002a16.386 16.386 0 0 1 .439-.1c.015.187-.006.457-.092.756-.22.77-.67 1.206-1.154 1.206-.286 0-.657-.13-1.093-.434-.429-.3-.863-.73-1.26-1.223z"/>
</svg>
